svg/u1f410.svg

<svg viewBox="0 0 128 128" xmlns="http://www.w3.org/2000/svg">
  <path d="M66.67,49.49c0,0,5.07-2.25,9.57-3.1c4.5-0.84,8.17-0.7,8.17-0.7s3.94-5.77,4.5-8.87 s0.63-5.98,0.7-6.48c0.17-1.2,8.17-1.27,9.85,3.52c1.69,4.79-0.42,10.56-1.83,12.67s-2.96,3.66-2.96,3.66s6.9,6.48,8.45,13.66 s1.13,17.74,1.13,17.74s-0.42,8.02-4.36,8.59c-3.94,0.56-8.73-3.03-9.43-3.87c-0.7-0.84-2.06-3.21-4.36-2.46 c-2.6,0.84-3.27,3.84-3.8,6.48c-0.66,3.24-1.64,11.5-1.64,11.5s-4.69,1.88-7.51,1.45c-2.82-0.42-6.34-3.8-6.34-3.8 s0.28-4.22-1.13-5.07s-2.82,1.55-2.82,1.55l-5.63,6.19l-7.74-6.34c0,0-0.56-2.82-1.41-4.22c-0.84-1.41-2.53-4.5-3.1-6.62 C43.58,79.76,44,69.77,44,69.77l-8.59-41.95l2.11-1.97c0,0,1.97-10.14,5.07-14.5s5.63-5.49,7.32-6.34s6.9-1.41,6.9,0 s-2.39,3.24-3.8,5.49s-2.96,5.49-3.8,8.31S47.43,25,47.43,25l3.05,0.7c0,0,1.69-4.08,3.24-6.19c1.55-2.11,3.73-5,6.41-7.04 c2.27-1.73,5.42-3.52,8.94-3.52c3.52,0,8.17,0.99,7.74,3.59c-0.23,1.42-2.89,0.77-5.56,2.53c-3.25,2.14-6.76,5.7-9.36,11.68 s-3.52,8.59-3.52,8.59s6.83,6.41,7.53,8.59S66.67,49.49,66.67,49.49z" fill="#B68859"/>
  <path d="M35.7,70.14c0,0,5.73,3.62,8.26,3.75c3.89,0.21,9.62-2.09,13.21-6.03s6.55-9.68,6.03-16.68 c-0.45-6.03-2.51-8.24-2.51-8.24s3.59,3.52,8.8,3.1c5.21-0.42,9.43-3.59,11.05-6.76c1.28-2.5,2.46-5.56,1.69-6.12 c-0.77-0.56-3.36,0-3.36,0l-9.81,4.43l-16.82,1.13l-17.6,25.13L35.7,70.14z" fill="#6D4938"/>
  <path d="M22.18,30.16c-0.7,0.48,0.35,3.66,2.82,5.56s5.98,2.46,5.98,2.46l5.21-7.11 C36.19,31.07,23.52,29.24,22.18,30.16z" fill="#6D4938"/>
  <path d="M66.76,97.97c0,0,2.86,2.63,6.87,2.28c4.01-0.35,7.63-2.93,7.63-2.93s-0.8,8.21-0.87,9.76 c-0.07,1.55-0.21,6.1-0.21,6.1s-5.07,5.44-7.81,4.95c-2.75-0.49-6.57-5.3-6.5-6.22c0.07-0.92,0.66-5.04,0.8-7.16 C66.81,102.64,66.76,97.97,66.76,97.97z" fill="#855B52"/>
  <path d="M56.32,96.72c4.29-0.3,7.53-1.95,7.53-1.95s0.23,6.01,0.14,7.6c-0.16,2.78-0.38,6.1-0.66,6.95 c-0.28,0.84-9.41,2.04-9.41,2.04s-4.43-3.94-4.43-4.15c0-0.21,0.23-3.21,0.33-5.44c0.07-1.62-0.42-6.66-0.42-6.66 S52.24,97.01,56.32,96.72z" fill="#855B52"/>
  <path d="M90.04,85.77c0,0,3.03,0.33,5.07,0.12c2.04-0.21,6.26-1.76,7.32-2.46c1.06-0.7,1.83-1.83,1.83-1.83 s-0.42,8.73-0.35,10.42c0.07,1.69,0.07,5.7,0.07,5.7s-3.31,5.35-6.83,5.7c-3.52,0.35-7.11-6.15-7.11-6.15s0.52-3.43,0.52-5.54 C90.55,89.62,90.04,85.77,90.04,85.77z" fill="#855B52"/>
  <path d="M72.25,114.39c3.72,0.33,8-1.69,8-1.69s0.35,6.41-0.63,8.26c-0.84,1.6-3.43,3.33-9.78,2.3 c-4.12-0.67-4.62-3.11-4.86-4.65c-0.23-1.55,0.84-6.9,0.84-6.9S67.54,113.97,72.25,114.39z" fill="#46484A"/>
  <path d="M97.08,99.38c2.96-0.1,6.9-1.67,6.9-1.67s0.21,6.26-2.18,8.45c-2.75,2.51-9.27,1.74-11.1-0.31 c-1.83-2.04-0.66-8.78-0.66-8.78S93.06,99.52,97.08,99.38z" fill="#46484A"/>
  <path d="M55.97,108.69c3.46,0.14,7.65-1.1,7.65-1.1s0.52,7.56-3,8.87c-3.74,1.4-8.63,1.08-10.56-1.36 c-1.39-1.76-0.63-8.17-0.63-8.17S52.38,108.55,55.97,108.69z" fill="#46484A"/>
  <path d="M39.71,32.88c0.69,0.41,2.11-3.87,11.19-3.8c10,0.07,15.27,4.93,16.05,5c0.77,0.07,6.12,0,7.81-0.14 c1.69-0.14,4.65-1.48,4.58-0.49s-1.2,6.41-6.19,7.81c-5,1.41-13.44-1.62-15.06-1.76c-1.62-0.14-3.03,0-2.89,2.46 c0.14,2.46-18.37,13.59-18.37,13.59s-13.54-6.31-13.75-7.09c-0.21-0.77,1.31-2.82,2.56-4.74c1.58-2.44,2.39-5.14,3.24-6.55 c0.84-1.41,2.18-3.24,2.18-3.24s-2.63,0.21-4.36-0.54c-1.19-0.51-4.15-2.49-4.29-3.19s3.31,0.07,6.12-0.21 c2.82-0.28,8.09-3.24,8.09-3.24s1.76,1.41,2.25,2.75C39.36,30.84,39.36,32.67,39.71,32.88z" fill="#855B52"/>
  <path d="M27.53,66.18c0,0-0.81,3.1-0.33,6.48c0.38,2.65,2.37,5.21,2.72,6.12s0.99,3.03,0.92,3.73 c-0.07,0.7,0.89,0.87,1.1,0.35c0.26-0.63-0.02-1.51,0.7-1.34c0.8,0.19,0,1.74,1.03,1.78c1.08,0.05,0.35-1.41,1.13-1.41 c0.82,0,0.09,1.67,1.27,1.64c1.08-0.02,0.07-1.48,1.1-1.45c0.84,0.02,0.14,1.55,1.31,1.38c0.66-0.09-0.11-1.66,0.75-1.85 c0.75-0.16,0.35,1.41,1.22,1.08c0.56-0.21,0.75-1.67,0.54-3.36c-0.21-1.69-0.84-4.08-1.2-6.01c-0.35-1.92-0.75-3.97-0.77-5.8 s-0.05-3.97-0.05-3.97L27.53,66.18z" fill="#46484A"/>
  <path d="M40.44,50.01c0.55,0.05,2.63-2.25,3.57-3.89s3.43-5.26,7.09-5.68c3.76-0.43,5.96,1.55,6.85,4.65 c0.82,2.86,0.05,6.15-3.71,7.93c-3.62,1.72-5.02,1.03-8.07,1.92c-1.62,0.47-4.13,1.88-4.27,2.06c-0.14,0.19,0.83,6.93-4.5,9.85 c-4.46,2.44-11.31,1.5-14.83-2.91c-3.86-4.84-3.14-12.11-0.28-15.63c2.83-3.48,6.24-4.75,11.26-3.28 C39.17,46.68,39.92,49.96,40.44,50.01z" fill="#FFF3DD"/>
  <path d="M55.22,47.57c0,2.06-1.31,3.94-3.89,3.99c-2.21,0.04-3.07-1.79-3.14-3.85 c-0.09-2.63,1.79-3.95,3.66-3.99C54.28,43.67,55.22,45.51,55.22,47.57z" fill="#2E2E2E"/>
  <path d="M25.42,52.77c0,0,3.66-2.01,4.12-2.25s1.65-0.67,2.29,0.32c0.63,0.99-0.39,1.87-1.2,2.22 c-0.81,0.35-4.22,2.43-4.22,2.43s-0.39,2.57-0.04,2.85c0.94,0.75,2.36,1.16,3.52,1.06c1.16-0.11,2.08-0.6,2.43-0.67 c0.35-0.07,1.34-0.11,1.55,0.6c0.21,0.7-0.29,1.52-1.16,1.94c-1.04,0.49-2.08,1.01-3.84,0.7c-1.37-0.24-2.46-0.56-3.1-0.99 c-0.63-0.42-1.3-1.2-1.3-1.2s-0.95,1.16-1.83,1.13c-0.88-0.04-2.01-0.6-2.04-0.7c-0.04-0.11-1.2-1.02-0.67-2.01 c0.53-0.99,1.72,0.35,2.46,0.46c0.74,0.11,1.2-0.39,1.27-0.63c0.07-0.25,0.04-2.99,0.04-2.99s-1.58-2.04-1.94-2.39 c-0.35-0.35-1.27-1.51-0.32-2.22s1.58,0,1.83,0.21S25.42,52.77,25.42,52.77z" fill="#2E2E2E"/>
</svg>

<svg viewBox="0 0 128 128" xmlns="http://www.w3.org/2000/svg">
  <defs/>
  <path d="M66.67,49.49 C66.67,49.49 71.74,47.24 76.24,46.39 C80.74,45.55 84.41,45.69 84.41,45.69 C84.41,45.69 88.35,39.92 88.91,36.82 C89.47,33.72 89.54,30.84 89.61,30.34 C89.78,29.14 97.78,29.07 99.46,33.86 C101.15,38.65 99.04,44.42 97.63,46.53 C96.22,48.64 94.67,50.19 94.67,50.19 C94.67,50.19 101.57,56.67 103.12,63.85 C104.67,71.03 104.25,81.59 104.25,81.59 C104.25,81.59 103.83,89.61 99.89,90.18 C95.95,90.74 91.16,87.15 90.46,86.31 C89.76,85.47 88.4,83.1 86.1,83.85 C83.5,84.69 82.83,87.69 82.3,90.33 C81.64,93.57 80.66,101.83 80.66,101.83 C80.66,101.83 75.97,103.71 73.15,103.28 C70.33,102.86 66.81,99.48 66.81,99.48 C66.81,99.48 67.09,95.26 65.68,94.41 C64.27,93.56 62.86,95.96 62.86,95.96 L57.23,102.15 L49.49,95.81 C49.49,95.81 48.93,92.99 48.08,91.59 C47.24,90.18 45.55,87.09 44.98,84.97 C43.58,79.76 44,69.77 44,69.77 L35.41,27.82 L37.52,25.85 C37.52,25.85 39.49,15.71 42.59,11.35 C45.69,6.99 48.22,5.86 49.91,5.01 C51.6,4.16 56.81,3.6 56.81,5.01 C56.81,6.42 54.42,8.25 53.01,10.5 C51.6,12.75 50.05,15.99 49.21,18.81 C48.37,21.63 47.43,25 47.43,25 L50.48,25.7 C50.48,25.7 52.17,21.62 53.72,19.51 C55.27,17.4 57.45,14.51 60.13,12.47 C62.4,10.74 65.55,8.95 69.07,8.95 C72.59,8.95 77.24,9.94 76.81,12.54 C76.58,13.96 73.92,13.31 71.25,15.07 C68,17.21 64.49,20.77 61.89,26.75 C59.29,32.73 58.37,35.34 58.37,35.34 C58.37,35.34 65.2,41.75 65.9,43.93 C66.6,46.11 66.67,49.49 66.67,49.49 Z" fill="#B68859"/>
  <path d="M35.7,70.14 C35.7,70.14 41.43,73.76 43.96,73.89 C47.85,74.1 53.58,71.8 57.17,67.86 C60.76,63.92 63.72,58.18 63.2,51.18 C62.75,45.15 60.69,42.94 60.69,42.94 C60.69,42.94 64.28,46.46 69.49,46.04 C74.7,45.62 78.92,42.45 80.54,39.28 C81.82,36.78 83,33.72 82.23,33.16 C81.46,32.6 78.87,33.16 78.87,33.16 L69.06,37.59 L52.24,38.72 L34.64,63.85 L35.7,70.14 Z" fill="#6D4938"/>
  <path d="M22.18,30.16 C21.48,30.64 22.53,33.82 25,35.72 C27.47,37.62 30.98,38.18 30.98,38.18 L36.19,31.07 C36.19,31.07 23.52,29.24 22.18,30.16 Z" fill="#6D4938"/>
  <path d="M66.76,97.97 C66.76,97.97 69.62,100.6 73.63,100.25 C77.64,99.9 81.26,97.32 81.26,97.32 C81.26,97.32 80.46,105.53 80.39,107.08 C80.32,108.63 80.18,113.18 80.18,113.18 C80.18,113.18 75.11,118.62 72.37,118.13 C69.62,117.64 65.8,112.83 65.87,111.91 C65.94,110.99 66.53,106.87 66.67,104.75 C66.81,102.64 66.76,97.97 66.76,97.97 Z" fill="#855B52"/>
  <path d="M56.32,96.72 C60.61,96.42 63.85,94.77 63.85,94.77 C63.85,94.77 64.08,100.78 63.99,102.37 C63.83,105.15 63.61,108.47 63.33,109.32 C63.05,110.16 53.92,111.36 53.92,111.36 C53.92,111.36 49.49,107.42 49.49,107.21 C49.49,107 49.72,104 49.82,101.77 C49.89,100.15 49.4,95.11 49.4,95.11 C49.4,95.11 52.24,97.01 56.32,96.72 Z" fill="#855B52"/>
  <path d="M90.04,85.77 C90.04,85.77 93.07,86.1 95.11,85.89 C97.15,85.68 101.37,84.13 102.43,83.43 C103.49,82.73 104.26,81.6 104.26,81.6 C104.26,81.6 103.84,90.33 103.91,92.02 C103.98,93.71 103.98,97.72 103.98,97.72 C103.98,97.72 100.67,103.07 97.15,103.42 C93.63,103.77 90.04,97.27 90.04,97.27 C90.04,97.27 90.56,93.84 90.56,91.73 C90.55,89.62 90.04,85.77 90.04,85.77 Z" fill="#855B52"/>
  <path d="M72.25,114.39 C75.97,114.72 80.25,112.7 80.25,112.7 C80.25,112.7 80.6,119.11 79.62,120.96 C78.78,122.56 76.19,124.29 69.84,123.26 C65.72,122.59 65.22,120.15 64.98,118.61 C64.75,117.06 65.82,111.71 65.82,111.71 C65.82,111.71 67.54,113.97 72.25,114.39 Z" fill="#46484A"/>
  <path d="M97.08,99.38 C100.04,99.28 103.98,97.71 103.98,97.71 C103.98,97.71 104.19,103.97 101.8,106.16 C99.05,108.67 92.53,107.9 90.7,105.85 C88.87,103.81 90.04,97.07 90.04,97.07 C90.04,97.07 93.06,99.52 97.08,99.38 Z" fill="#46484A"/>
  <path d="M55.97,108.69 C59.43,108.83 63.62,107.59 63.62,107.59 C63.62,107.59 64.14,115.15 60.62,116.46 C56.88,117.86 51.99,117.54 50.06,115.1 C48.67,113.34 49.43,106.93 49.43,106.93 C49.43,106.93 52.38,108.55 55.97,108.69 Z" fill="#46484A"/>
  <path d="M39.71,32.88 C40.4,33.29 41.82,29.01 50.9,29.08 C60.9,29.15 66.17,34.01 66.95,34.08 C67.72,34.15 73.07,34.08 74.76,33.94 C76.45,33.8 79.41,32.46 79.34,33.45 C79.27,34.44 78.14,39.86 73.15,41.26 C68.15,42.67 59.71,39.64 58.09,39.5 C56.47,39.36 55.06,39.5 55.2,41.96 C55.34,44.42 36.83,55.55 36.83,55.55 C36.83,55.55 23.29,49.24 23.08,48.46 C22.87,47.69 24.39,45.64 25.64,43.72 C27.22,41.28 28.03,38.58 28.88,37.17 C29.72,35.76 31.06,33.93 31.06,33.93 C31.06,33.93 28.43,34.14 26.7,33.39 C25.51,32.88 22.55,30.9 22.41,30.2 C22.27,29.5 25.72,30.27 28.53,29.99 C31.35,29.71 36.62,26.75 36.62,26.75 C36.62,26.75 38.38,28.16 38.87,29.5 C39.36,30.84 39.36,32.67 39.71,32.88 Z" fill="#855B52"/>
  <path d="M27.53,66.18 C27.53,66.18 26.72,69.28 27.2,72.66 C27.58,75.31 29.57,77.87 29.92,78.78 C30.27,79.69 30.91,81.81 30.84,82.51 C30.77,83.21 31.73,83.38 31.94,82.86 C32.2,82.23 31.92,81.35 32.64,81.52 C33.44,81.71 32.64,83.26 33.67,83.3 C34.75,83.35 34.02,81.89 34.8,81.89 C35.62,81.89 34.89,83.56 36.07,83.53 C37.15,83.51 36.14,82.05 37.17,82.08 C38.01,82.1 37.31,83.63 38.48,83.46 C39.14,83.37 38.37,81.8 39.23,81.61 C39.98,81.45 39.58,83.02 40.45,82.69 C41.01,82.48 41.2,81.02 40.99,79.33 C40.78,77.64 40.15,75.25 39.79,73.32 C39.44,71.4 39.04,69.35 39.02,67.52 C39,65.69 38.97,63.55 38.97,63.55 L27.53,66.18 Z" fill="#46484A"/>
  <path d="M40.44,50.01 C40.99,50.06 43.07,47.76 44.01,46.12 C44.95,44.48 47.44,40.86 51.1,40.44 C54.86,40.01 57.06,41.99 57.95,45.09 C58.77,47.95 58,51.24 54.24,53.02 C50.62,54.74 49.22,54.05 46.17,54.94 C44.55,55.41 42.04,56.82 41.9,57 C41.76,57.19 42.73,63.93 37.4,66.85 C32.94,69.29 26.09,68.35 22.57,63.94 C18.71,59.1 19.43,51.83 22.29,48.31 C25.12,44.83 28.53,43.56 33.55,45.03 C39.17,46.68 39.92,49.96 40.44,50.01 Z" fill="#FFF3DD"/>
  <path d="M55.22,47.57 C55.22,49.63 53.91,51.51 51.33,51.56 C49.12,51.6 48.26,49.77 48.19,47.71 C48.1,45.08 49.98,43.76 51.85,43.72 C54.28,43.67 55.22,45.51 55.22,47.57 Z" fill="#2E2E2E"/>
  <path d="M25.42,52.77 C25.42,52.77 29.08,50.76 29.54,50.52 C30,50.28 31.19,49.85 31.83,50.84 C32.46,51.83 31.44,52.71 30.63,53.06 C29.82,53.41 26.41,55.49 26.41,55.49 C26.41,55.49 26.02,58.06 26.37,58.34 C27.31,59.09 28.73,59.5 29.89,59.4 C31.05,59.29 31.97,58.8 32.32,58.73 C32.67,58.66 33.66,58.62 33.87,59.33 C34.08,60.03 33.58,60.85 32.71,61.27 C31.67,61.76 30.63,62.28 28.87,61.97 C27.5,61.73 26.41,61.41 25.77,60.98 C25.14,60.56 24.47,59.78 24.47,59.78 C24.47,59.78 23.52,60.94 22.64,60.91 C21.76,60.87 20.63,60.31 20.6,60.21 C20.56,60.1 19.4,59.19 19.93,58.2 C20.46,57.21 21.65,58.55 22.39,58.66 C23.13,58.77 23.59,58.27 23.66,58.03 C23.73,57.78 23.7,55.04 23.7,55.04 C23.7,55.04 22.12,53 21.76,52.65 C21.41,52.3 20.49,51.14 21.44,50.43 C22.39,49.72 23.02,50.43 23.27,50.64 C23.52,50.85 25.42,52.77 25.42,52.77 Z" fill="#2E2E2E"/>
</svg>
